SVG_Azure_Grouped/IoT/Custom Location.svg

<?xml version="1.0" encoding="UTF-8" standalone="no"?>
<!-- Generated by Microsoft Visio, SVG Export Custom Location.svg Page-1 -->

<svg
   xmlns:dc="http://purl.org/dc/elements/1.1/"
   xmlns:cc="http://creativecommons.org/ns#"
   xmlns:rdf="http://www.w3.org/1999/02/22-rdf-syntax-ns#"
   xmlns:svg="http://www.w3.org/2000/svg"
   xmlns="http://www.w3.org/2000/svg"
   xmlns:sodipodi="http://sodipodi.sourceforge.net/DTD/sodipodi-0.dtd"
   xmlns:inkscape="http://www.inkscape.org/namespaces/inkscape"
   width="0.66944492in"
   height="0.78737867in"
   viewBox="0 0 48.200039 56.691149"
   xml:space="preserve"
   class="st5"
   version="1.1"
   id="svg50"
   sodipodi:docname="Custom Location.svg"
   style="font-size:12px;overflow:visible;color-interpolation-filters:sRGB;fill:none;fill-rule:evenodd;stroke-linecap:square;stroke-miterlimit:3"
   inkscape:version="0.92.5 (2060ec1f9f, 2020-04-08)"><metadata
   id="metadata54"><rdf:RDF><cc:Work
       rdf:about=""><dc:format>image/svg+xml</dc:format><dc:type
         rdf:resource="http://purl.org/dc/dcmitype/StillImage" /></cc:Work></rdf:RDF></metadata><sodipodi:namedview
   pagecolor="#ffffff"
   bordercolor="#666666"
   borderopacity="1"
   objecttolerance="10"
   gridtolerance="10"
   guidetolerance="10"
   inkscape:pageopacity="0"
   inkscape:pageshadow="2"
   inkscape:window-width="640"
   inkscape:window-height="480"
   id="namedview52"
   showgrid="false"
   inkscape:zoom="1.809261"
   inkscape:cx="32.126543"
   inkscape:cy="19.865867"
   inkscape:window-x="0"
   inkscape:window-y="0"
   inkscape:window-maximized="0"
   inkscape:current-layer="svg50" />
	<style
   type="text/css"
   id="style2">
	<![CDATA[
		.st1 {fill:#50e6ff;stroke:none;stroke-width:7.12109}
		.st2 {fill:url(#grad0-9);stroke:none;stroke-width:7.12109}
		.st3 {fill:#32bedd;stroke:none;stroke-width:7.12109}
		.st4 {fill:url(#grad0-15);stroke:none;stroke-width:7.12109}
		.st5 {fill:none;fill-rule:evenodd;font-size:12px;overflow:visible;stroke-linecap:square;stroke-miterlimit:3}
	]]>
	</style>

	<defs
   id="Patterns_And_Gradients">
		<linearGradient
   id="grad0-9"
   x1="-0.0086051004"
   y1="38.224012"
   x2="36.0996"
   y2="38.224012"
   gradientTransform="scale(0.75976966,1.3161884)"
   gradientUnits="userSpaceOnUse">
			<stop
   offset="0"
   stop-color="#b77af4"
   stop-opacity="1"
   id="stop4" />
			<stop
   offset="0.62"
   stop-color="#8c4fe4"
   stop-opacity="1"
   id="stop6" />
			<stop
   offset="0.995"
   stop-color="#773adc"
   stop-opacity="1"
   id="stop8" />
		</linearGradient>
		<linearGradient
   id="grad0-15"
   x1="-0.049307093"
   y1="70.230589"
   x2="25.317459"
   y2="70.230589"
   gradientTransform="scale(0.97710581,1.0234306)"
   gradientUnits="userSpaceOnUse">
			<stop
   offset="0.3"
   stop-color="#198ab3"
   stop-opacity="1"
   id="stop11" />
			<stop
   offset="0.995"
   stop-color="#50e6ff"
   stop-opacity="1"
   id="stop13" />
		</linearGradient>
	</defs>
	<g
   id="g48"
   transform="translate(-7.12109,-7.1231345)">
		<title
   id="title17">Page-1</title>
		<g
   id="group20672-1"
   transform="translate(7.12109,-34.0157)">
			<title
   id="title19">Custom Location.20672</title>
			<g
   id="group20673-2">
				<title
   id="title21">g10</title>
				<g
   id="group20674-3">
					<title
   id="title23">g14-9</title>
					<g
   id="shape20675-4"
   transform="translate(0.00327181,-5.79848)">
						<title
   id="title25">path4</title>
						<path
   d="M 4.29,86.41 0,97.83 h 44.22 l -4.3,-11.42 a 1.47232,1.5022 -180 0 0 -1.35,-1 H 5.64 a 1.46577,1.49552 -180 0 0 -1.35,1 z"
   class="st1"
   id="path27"
   inkscape:connector-curvature="0"
   style="fill:#50e6ff;stroke:none;stroke-width:7.12108994" />
					</g>
					<g
   id="shape20676-6"
   transform="translate(7.96032,-9.17127)">
						<title
   id="title30">path6</title>
						<path
   d="M 13.72,50.31 A 14.1604,14.4478 -180 0 0 0,65.19 v 0.19 c 0,6.58 8.18,21.99 11.9,31.22 a 1.94346,1.9829 -180 0 0 3.6,0 C 19.22,87.29 27.42,71.76 27.42,65.39 A 14.3338,14.6247 -180 0 0 13.72,50.31 Z m 0,20.42 a 6.0962721,6.22 0 1 1 0,-12.44 6.0962721,6.22 0 1 1 0,12.44 z"
   class="st2"
   id="path32"
   inkscape:connector-curvature="0"
   style="fill:url(#grad0-9);stroke:none;stroke-width:7.12108994" />
					</g>
					<g
   id="shape20677-10">
						<title
   id="title35">path8</title>
						<path
   d="m 0,92.03 h 44.22 v 4.25 A 1.52139,1.55227 0 0 1 42.7,97.83 H 1.52 A 1.52139,1.55227 0 0 1 0,96.28 Z"
   class="st3"
   id="path37"
   inkscape:connector-curvature="0"
   style="fill:#32bedd;stroke:none;stroke-width:7.12108994" />
					</g>
					<g
   id="shape20678-12"
   transform="translate(23.4622,-3.80584)">
						<title
   id="title40">path10</title>
						<path
   d="M 7.35,97.11 0,73.23 a 1.01753,1.03819 0 0 1 1.37,-1.27 l 22.74,9.88 a 1.01753,1.03819 0 0 1 0.08,1.88 l -9.16,4.93 a 1.0568,1.07824 -180 0 0 -0.37,0.33 l -5.5,8.4 A 1.01426,1.03485 0 0 1 7.35,97.11 Z"
   class="st4"
   id="path42"
   inkscape:connector-curvature="0"
   style="fill:url(#grad0-15);stroke:none;stroke-width:7.12108994" />
					</g>
				</g>
			</g>
		</g>
	</g>
</svg>

<?xml version="1.0" encoding="UTF-8" standalone="no"?>
<!DOCTYPE svg PUBLIC "-//W3C//DTD SVG 1.1//EN" "http://www.w3.org/Graphics/SVG/1.1/DTD/svg11.dtd">
<!-- Generated by Microsoft Visio, SVG Export Custom Location.svg Page-1 -->
<svg xmlns="http://www.w3.org/2000/svg" xmlns:xlink="http://www.w3.org/1999/xlink" xmlns:ev="http://www.w3.org/2001/xml-events"
		width="0.867111in" height="1.35875in" viewBox="0 0 62.432 97.8298" xml:space="preserve" color-interpolation-filters="sRGB"
		class="st5">
	<style type="text/css">
	<![CDATA[
		.st1 {fill:#50e6ff;stroke:none;stroke-width:7.12109}
		.st2 {fill:url(#grad0-9);stroke:none;stroke-width:7.12109}
		.st3 {fill:#32bedd;stroke:none;stroke-width:7.12109}
		.st4 {fill:url(#grad0-15);stroke:none;stroke-width:7.12109}
		.st5 {fill:none;fill-rule:evenodd;font-size:12px;overflow:visible;stroke-linecap:square;stroke-miterlimit:3}
	]]>
	</style>

	<defs id="Patterns_And_Gradients">
		<linearGradient id="grad0-9" x1="0" y1="0" x2="1" y2="0" gradientTransform="rotate(90 0.5 0.5)">
			<stop offset="0" stop-color="#b77af4" stop-opacity="1"/>
			<stop offset="0.62" stop-color="#8c4fe4" stop-opacity="1"/>
			<stop offset="0.995" stop-color="#773adc" stop-opacity="1"/>
		</linearGradient>
		<linearGradient id="grad0-15" x1="0" y1="0" x2="1" y2="0" gradientTransform="rotate(-119.73567096071 0.5 0.5)">
			<stop offset="0.3" stop-color="#198ab3" stop-opacity="1"/>
			<stop offset="0.995" stop-color="#50e6ff" stop-opacity="1"/>
		</linearGradient>
	</defs>
	<g>
		<title>Page-1</title>
		<g id="group20217-1" transform="translate(7.12109,-34.0157)">
			<title>Custom Location.20217</title>
			<g id="group20218-2">
				<title>g10</title>
				<g id="group20219-3">
					<title>g14-9</title>
					<g id="shape20220-4" transform="translate(0.00327181,-5.79848)">
						<title>path4</title>
						<path d="M4.29 86.41 L0 97.83 L44.22 97.83 L39.92 86.41 A1.47232 1.5022 -180 0 0 38.57 85.41 L5.64 85.41
									 A1.46577 1.49552 -180 0 0 4.29 86.41 L4.29 86.41 Z" class="st1"/>
					</g>
					<g id="shape20221-6" transform="translate(7.96032,-9.17127)">
						<title>path6</title>
						<path d="M13.72 50.31 A14.1604 14.4478 -180 0 0 0 65.19 L0 65.38 C0 71.96 8.18 87.37 11.9 96.6 A1.94346 1.9829
									 -180 0 0 15.5 96.6 C19.22 87.29 27.42 71.76 27.42 65.39 A14.3338 14.6247 -180 0 0 13.72 50.31
									 ZM13.72 70.73 A6.09539 6.2191 0 1 1 13.72 58.29 A6.09539 6.2191 0 1 1 13.72 70.73 Z"
								class="st2"/>
					</g>
					<g id="shape20222-10">
						<title>path8</title>
						<path d="M0 92.03 L44.22 92.03 L44.22 96.28 A1.52139 1.55227 0 0 1 42.7 97.83 L1.52 97.83 A1.52139 1.55227
									 0 0 1 0 96.28 L0 92.03 L0 92.03 Z" class="st3"/>
					</g>
					<g id="shape20223-12" transform="translate(23.4622,-3.80584)">
						<title>path10</title>
						<path d="M7.35 97.11 L0 73.23 A1.01753 1.03819 0 0 1 1.37 71.96 L24.11 81.84 A1.01753 1.03819 0 0 1 24.19
									 83.72 L15.03 88.65 A1.0568 1.07824 -180 0 0 14.66 88.98 L9.16 97.38 A1.01426 1.03485 0 0 1 7.35
									 97.11 Z" class="st4"/>
					</g>
				</g>
			</g>
		</g>
	</g>
</svg>
